vendor/shopware/storefront/Resources/app/storefront/dist/assets/icon/default/books.svg

<svg xmlns="http://www.w3.org/2000/svg" width="24" height="24" viewBox="0 0 24 24">
  <path fill="#758CA3" fill-rule="evenodd" d="M8,4 L8,3 C8,1.8954305 8.8954305,1 10,1 L14,1 C15.1045695,1 16,1.8954305 16,3 L20,3 C21.1045695,3 22,3.8954305 22,5 L22,21 C22,22.1045695 21.1045695,23 20,23 L16,23 C15.6357129,23 15.2941734,22.9026057 15,22.7324356 C14.7058266,22.9026057 14.3642871,23 14,23 L10,23 C9.63571286,23 9.29417337,22.9026057 9,22.7324356 C8.70582663,22.9026057 8.36428714,23 8,23 L4,23 C2.8954305,23 2,22.1045695 2,21 L2,6 C2,4.8954305 2.8954305,4 4,4 L8,4 Z M8,6 L4,6 L4,21 L8,21 L8,6 Z M16,21 L20,21 L20,5 L16,5 L16,21 Z M10,3 L10,21 L14,21 L14,3 L10,3 Z M5,15 C5,14.4477153 5.44771525,14 6,14 C6.55228475,14 7,14.4477153 7,15 L7,19 C7,19.5522847 6.55228475,20 6,20 C5.44771525,20 5,19.5522847 5,19 L5,15 Z M11,13 C11,12.4477153 11.4477153,12 12,12 C12.5522847,12 13,12.4477153 13,13 L13,19 C13,19.5522847 12.5522847,20 12,20 C11.4477153,20 11,19.5522847 11,19 L11,13 Z M17,17 C17,16.4477153 17.4477153,16 18,16 C18.5522847,16 19,16.4477153 19,17 L19,19 C19,19.5522847 18.5522847,20 18,20 C17.4477153,20 17,19.5522847 17,19 L17,17 Z"/>
</svg>

<svg xmlns="http://www.w3.org/2000/svg" width="24" height="24" viewBox="0 0 24 24"><path fill="#758CA3" fill-rule="evenodd" d="M8 4V3c0-1.1046.8954-2 2-2h4c1.1046 0 2 .8954 2 2h4c1.1046 0 2 .8954 2 2v16c0 1.1046-.8954 2-2 2h-4a1.9908 1.9908 0 0 1-1-.2676A1.9908 1.9908 0 0 1 14 23h-4a1.9908 1.9908 0 0 1-1-.2676A1.9908 1.9908 0 0 1 8 23H4c-1.1046 0-2-.8954-2-2V6c0-1.1046.8954-2 2-2h4zm0 2H4v15h4V6zm8 15h4V5h-4v16zM10 3v18h4V3h-4zM5 15c0-.5523.4477-1 1-1s1 .4477 1 1v4c0 .5523-.4477 1-1 1s-1-.4477-1-1v-4zm6-2c0-.5523.4477-1 1-1s1 .4477 1 1v6c0 .5523-.4477 1-1 1s-1-.4477-1-1v-6zm6 4c0-.5523.4477-1 1-1s1 .4477 1 1v2c0 .5523-.4477 1-1 1s-1-.4477-1-1v-2z"/></svg>
